X:127
T:Muses,The TS.127
M:6/8
L:1/8
Q:3/8=110
S:Thomas Sands’ MS,1810,Lincolnshire
R:jig
O:England;Lincolnshire
Z:vmp.Ruairidh Greig, 2011
K:D
A/G/|FAd FAd|{c/}BAB e2d|{d/}cBc ABc|{d/}dcdf2(A/G/)|
FAd FAd|{c/}BAB e2d|{d/}cBc ABc|d3d2||
a|f2ae2a|{e/}dcd c2a|f2ae2a|{a/}(gfg)a2a|
f2ae2a|{e/}dcd c2a|f2ae2a|{a/}(^gfg)”Da Capo”a2||
F|”minore”B^AB {c/}B^AB|efg g2f|egf edc|B2cF2^A|
{d}B^AB BAB|efg f2f|cgf edc|BFd”Da Capo”B2|]

